X: 100561
T: Jim Donnelly's
S: Treoir
Z: B.Black
M: 4/4
L: 1/8
R: hornpipe
K: G
(3DEF|GA (3BcB ABcd|eaaa g2 ed|(3cBA BG AB (3cBA|\
GABG AGED|
GA (3BcB ABcd|eaaa g2 ed|(3cBA BG AB (3cBA|GEDE G2 :|
z2 |: DGGG BGGB|dBcB d4|(3Bcd BG AB (3cBA| GABG AGED |
GA (3BcB ABcd|eaaa g2 ed|(3cBA BG AB (3cBA|1\
GABG AGED :|2 GEDE G4||
